%
(Header)
(Generated by gcodetools from Inkscape.)
(Using default header. To add your own header create file "header" in the output dir.)
M3
(Header end.)
G21 (All units in mm)

(Start cutting path id: path1)
(Change tool to Default tool)

G00 Z100.000000
G00 X35.035885 Y208.656201

G01 Z-0.625000 F100.0(Penetrate)
G02 X28.661937 Y207.693515 Z-0.625000 I-11.032167 J51.461712 F400.000000
G02 X19.751519 Y207.298095 Z-0.625000 I-8.917789 J100.362332
G02 X10.819417 Y207.550921 Z-0.625000 I-0.011522 J157.500692
G02 X5.886141 Y208.084669 Z-0.625000 I2.750835 J48.490442
G03 X-4.486805 Y208.654124 Z-0.625000 I-7.913374 J-49.387352
G03 X-9.288777 Y207.337551 Z-0.625000 I0.565024 J-11.476294
G03 X-13.452628 Y204.141998 Z-0.625000 I7.306195 J-13.830633
G03 X-20.312351 Y195.448510 Z-0.625000 I51.057743 J-47.340979
G03 X-29.887315 Y173.679526 Z-0.625000 I57.114689 J-38.111809
G03 X-32.210103 Y146.897727 Z-0.625000 I85.213277 J-20.882184
G03 X-29.900763 Y126.793750 Z-0.625000 I214.533535 J14.458799
G03 X-27.128357 Y115.694522 Z-0.625000 I67.827841 J11.046424
G02 X-25.907033 Y111.063088 Z-0.625000 I-32.287691 J-10.991116
G02 X-26.103460 Y108.791940 Z-0.625000 I-4.141002 J-0.785922
G02 X-27.421525 Y106.865640 Z-0.625000 I-4.595338 J1.730254
G02 X-31.767963 Y103.372313 Z-0.625000 I-34.640289 J38.649245
G03 X-34.494047 Y100.860126 Z-0.625000 I8.939042 J-12.435336
G03 X-41.063898 Y92.693159 Z-0.625000 I145.502155 J-123.774037
G03 X-47.210655 Y84.109709 Z-0.625000 I147.240691 J-111.934243
G03 X-48.435111 Y81.447991 Z-0.625000 I7.543346 J-5.082624
G03 X-48.274508 Y79.371082 Z-0.625000 I2.955695 J-0.816107
G03 X-46.244259 Y76.591067 Z-0.625000 I7.633125 J3.443130
G01 X-45.097863 Y75.558932 Z-0.625000
G01 X-46.142226 Y74.802950 Z-0.625000
G03 X-47.154093 Y74.007641 Z-0.625000 I9.538781 J-13.177484
G03 X-48.707368 Y72.617235 Z-0.625000 I27.681977 J-32.487398
G03 X-49.768134 Y71.030533 Z-0.625000 I2.905078 J-3.090079
G03 X-49.937759 Y69.371514 Z-0.625000 I3.027704 J-1.147745
G03 X-49.428166 Y67.628887 Z-0.625000 I7.137088 J1.141262
G03 X-46.854424 Y62.285670 Z-0.625000 I70.717790 J30.772150
G02 X-38.607242 Y44.265412 Z-0.625000 I-150.674014 J-79.855064
G02 X-37.455680 Y38.130030 Z-0.625000 I-15.768502 J-6.135382
G02 X-37.609774 Y36.583625 Z-0.625000 I-7.836512 J-0.000000
G02 X-38.745239 Y31.723610 Z-0.625000 I-79.234309 J15.949190
G03 X-40.429558 Y22.529756 Z-0.625000 I57.074195 J-15.207236
G03 X-41.162295 Y8.105840 Z-0.625000 I140.289113 J-14.357274
G03 X-40.837082 Y-2.782740 Z-0.625000 I185.376541 J0.087561
G03 X-40.201918 Y-8.085600 Z-0.625000 I44.480814 J2.638337
G03 X-36.439234 Y-18.152605 Z-0.625000 I29.778237 J5.393352
G03 X-33.088718 Y-20.055170 Z-0.625000 I3.343822 J1.987145
G03 X-30.162683 Y-19.480182 Z-0.625000 I-0.015113 J7.809497
G03 X-25.735279 Y-17.065040 Z-0.625000 I-8.403996 J20.671784
G02 X-24.540391 Y-16.300448 Z-0.625000 I9.402799 J-13.378523
G02 X-18.459397 Y-12.842500 Z-0.625000 I199.612978 J-343.954677
G03 X-10.273908 Y-7.619040 Z-0.625000 I-39.574450 J71.040958
G03 X-2.401901 Y-1.190510 Z-0.625000 I-52.322947 J72.105733
G02 X2.838862 Y3.261695 Z-0.625000 I61.720803 J-67.341973
G02 X3.586505 Y3.520530 Z-0.625000 I0.747643 J-0.950361
G02 X4.412803 Y3.404634 Z-0.625000 I0.000000 J-3.003565
G02 X6.682033 Y2.634760 Z-0.625000 I-6.815485 J-23.818119
G03 X8.992552 Y2.038904 Z-0.625000 I3.563776 J9.041444
G03 X16.793546 Y1.319840 Z-0.625000 I13.509032 J103.881753
G03 X35.031006 Y1.646633 Z-0.625000 I6.866799 J125.837922
G03 X47.856125 Y4.133950 Z-0.625000 I-5.832781 J64.383146
G02 X50.715186 Y4.099135 Z-0.625000 I1.374229 J-4.558878
G02 X54.320163 Y2.012410 Z-0.625000 I-3.151199 J-9.601237
G03 X69.479184 Y-8.278011 Z-0.625000 I45.197237 J50.270204
G03 X83.581696 Y-12.501390 Z-0.625000 I19.392481 J39.097555
G03 X85.488065 Y-12.369302 Z-0.625000 I0.611043 J5.004045
G03 X86.696258 Y-11.673310 Z-0.625000 I-0.689624 J2.593801
G03 X87.488196 Y-10.326962 Z-0.625000 I-2.200365 J2.200368
G03 X90.068385 Y0.141890 Z-0.625000 I-142.579342 J40.692978
G03 X92.182345 Y21.714512 Z-0.625000 I-98.801046 J20.571671
G03 X89.616055 Y45.745310 Z-0.625000 I-125.447074 J-1.244278
G02 X89.967890 Y50.454433 Z-0.625000 I8.443980 J1.736825
G02 X94.779430 Y59.802704 Z-0.625000 I40.113377 J-14.733907
G03 X98.969528 Y66.678292 Z-0.625000 I-64.793656 J44.200888
G03 X99.575830 Y68.667299 Z-0.625000 I-4.600735 J2.489337
G01 X99.780900 Y70.801508 Z-0.625000
G01 X96.885385 Y73.571574 Z-0.625000
G02 X94.750097 Y77.308741 Z-0.625000 I5.229968 J5.466821
G02 X95.081610 Y81.252455 Z-0.625000 I6.226985 J1.462343
G03 X95.819896 Y85.838244 Z-0.625000 I-9.050893 J3.809468
G03 X94.421203 Y89.579987 Z-0.625000 I-7.240287 J-0.574184
G03 X90.373581 Y94.132228 Z-0.625000 I-27.112331 J-20.031322
G03 X79.271731 Y103.793475 Z-0.625000 I-134.630123 J-143.495764
G02 X75.308422 Y107.084246 Z-0.625000 I113.633588 J140.889008
G02 X74.999453 Y107.444732 Z-0.625000 I0.998905 J1.168803
G02 X75.000820 Y107.932095 Z-0.625000 I0.392507 J0.242582
G02 X89.489757 Y130.599125 Z-0.625000 I1191.784713 J-745.833558
G03 X95.463199 Y140.077382 Z-0.625000 I-293.740242 J191.744105
G03 X97.589624 Y143.918359 Z-0.625000 I-46.023729 J27.988558
G03 X100.984121 Y152.184724 Z-0.625000 I-53.156441 J26.658283
G03 X102.692880 Y159.609684 Z-0.625000 I-41.109360 J13.369893
G02 X103.255180 Y163.033023 Z-0.625000 I69.158717 J-9.601809
G02 X103.392030 Y163.291753 Z-0.625000 I0.488298 J-0.092718
G02 X104.170826 Y163.282843 Z-0.625000 I0.385044 J-0.385042
G02 X108.499950 Y157.944531 Z-0.625000 I-30.662965 J-29.290764
G02 X114.045119 Y145.474883 Z-0.625000 I-31.139336 J-21.315228
G02 X115.304230 Y129.725733 Z-0.625000 I-49.168685 J-11.855838
G03 X114.951145 Y125.140350 Z-0.625000 I11268.506281 J-869.910577
G03 X114.524430 Y119.571782 Z-0.625000 I16618.573892 J-1276.442159
G03 X115.183819 Y104.776993 Z-0.625000 I61.241522 J-4.682615
G03 X118.477310 Y95.890030 Z-0.625000 I24.812109 J4.141557
G03 X122.346868 Y91.805492 Z-0.625000 I11.333864 J6.862117
G03 X126.070754 Y90.641190 Z-0.625000 I3.774780 J5.535841
G03 X129.991205 Y91.631474 Z-0.625000 I0.060878 J8.014501
G03 X135.279210 Y95.762403 Z-0.625000 I-10.095580 J18.373415
G03 X140.990313 Y104.372167 Z-0.625000 I-23.616010 J21.864227
G03 X144.179560 Y115.455531 Z-0.625000 I-36.543684 J16.516010
G03 X144.774733 Y124.199284 Z-0.625000 I-63.968374 J8.746356
G03 X144.180330 Y134.311043 Z-0.625000 I-86.246749 J0.003477
G03 X137.351452 Y158.248037 Z-0.625000 I-77.375517 J-9.131528
G03 X124.299440 Y176.723881 Z-0.625000 I-58.261407 J-27.309857
G03 X115.583772 Y183.331145 Z-0.625000 I-29.547487 J-29.924136
G03 X101.413700 Y189.774346 Z-0.625000 I-42.198076 J-74.000007
G02 X95.542406 Y191.884339 Z-0.625000 I105.435642 J302.610402
G02 X94.644913 Y192.281542 Z-0.625000 I2.754466 J7.436357
G02 X93.852110 Y192.843365 Z-0.625000 I1.627288 J3.136592
G02 X89.404559 Y197.207085 Z-0.625000 I99.508931 J105.868942
G03 X84.768883 Y201.306708 Z-0.625000 I-30.263201 J-29.549598
G03 X80.888984 Y203.692618 Z-0.625000 I-13.883129 J-18.228700
G03 X71.968660 Y206.756869 Z-0.625000 I-17.071746 J-35.181391
G03 X61.174875 Y207.894352 Z-0.625000 I-10.793785 J-50.643341
G02 X57.837015 Y208.110087 Z-0.625000 I-0.000000 J25.929611
G02 X52.764434 Y208.986091 Z-0.625000 I7.905775 J60.903741
G03 X44.703178 Y209.771810 Z-0.625000 I-7.408987 J-34.268176
G03 X35.035885 Y208.656201 Z-0.625000 I0.941603 J-50.603165
G01 X35.035885 Y208.656201 Z-0.625000
G00 Z100.000000

(End cutting path id: path1)


(Start cutting path id: path1)
(Change tool to Default tool)

G00 Z100.000000
G00 X51.326494 Y204.618444

G01 Z-0.625000 F100.0(Penetrate)
G02 X55.975181 Y200.612621 Z-0.625000 I-5.480474 J-11.060264 F400.000000
G02 X60.756978 Y191.077627 Z-0.625000 I-30.605617 J-21.315242
G02 X65.889804 Y170.926987 Z-0.625000 I-137.251052 J-45.690008
G02 X67.402513 Y154.028269 Z-0.625000 I-94.788230 J-17.002146
G02 X67.307744 Y146.712791 Z-0.625000 I-260.991612 J-0.277317
G02 X67.198219 Y146.458136 Z-0.625000 I-0.374286 J0.010097
G03 X66.942086 Y144.736370 Z-0.625000 I1.033713 J-1.033711
G03 X68.669513 Y143.700011 Z-0.625000 I1.727427 J0.921478
G03 X69.315525 Y144.213193 Z-0.625000 I0.000000 J0.663203
G03 X70.368167 Y151.014672 Z-0.625000 I-44.955134 J10.439751
G03 X70.187359 Y161.553132 Z-0.625000 I-54.768971 J4.331111
G03 X67.078341 Y179.945795 Z-0.625000 I-170.978241 J-19.442340
G03 X62.682153 Y194.495420 Z-0.625000 I-103.415756 J-23.308236
G03 X58.813782 Y201.562257 Z-0.625000 I-27.819516 J-10.636154
G02 X57.944860 Y202.922344 Z-0.625000 I9.551652 J7.059894
G02 X57.529358 Y203.910484 Z-0.625000 I4.596726 J2.514300
G01 X57.213259 Y204.948622 Z-0.625000
G01 X61.081416 Y204.646943 Z-0.625000
G02 X71.119680 Y203.436550 Z-0.625000 I-9.325163 J-119.568004
G02 X76.132924 Y202.184501 Z-0.625000 I-5.057217 J-30.911891
G02 X90.918959 Y191.104377 Z-0.625000 I-9.564254 J-28.168943
G02 X99.279907 Y169.201783 Z-0.625000 I-39.202655 J-27.512080
G02 X99.164912 Y158.461210 Z-0.625000 I-41.750533 J-4.923897
G02 X96.523575 Y149.472135 Z-0.625000 I-31.677634 J4.425511
G02 X91.974876 Y140.871563 Z-0.625000 I-82.271345 J38.008786
G02 X90.414004 Y139.284225 Z-0.625000 I-4.069174 J2.440236
G03 X90.081123 Y138.962126 Z-0.625000 I0.582060 J-0.934607
G03 X89.975484 Y138.629181 Z-0.625000 I0.520298 J-0.348314
G02 X89.667939 Y137.488544 Z-0.625000 I-2.496299 J0.061287
G02 X87.494988 Y133.860642 Z-0.625000 I-49.472691 J27.167225
G02 X85.084148 Y130.491783 Z-0.625000 I-39.451470 J25.685406
G02 X84.660936 Y130.466307 Z-0.625000 I-0.222898 J0.174838
G03 X84.509649 Y130.437853 Z-0.625000 I-0.065921 J-0.065920
G03 X84.382553 Y129.832021 Z-0.625000 I1.380365 J-0.605832
G02 X84.195205 Y128.985692 Z-0.625000 I-2.005280 J-0.000000
G02 X83.382987 Y127.684931 Z-0.625000 I-5.689856 J2.648881
G03 X82.450504 Y126.407962 Z-0.625000 I12.311486 J-9.969182
G03 X81.856294 Y125.358771 Z-0.625000 I7.701525 J-5.054625
G02 X81.275650 Y124.297406 Z-0.625000 I-10.733045 J5.182251
G02 X79.170661 Y120.991809 Z-0.625000 I-106.530647 J65.515192
G03 X77.063690 Y117.686423 Z-0.625000 I107.573826 J-70.895622
G03 X76.290435 Y116.317978 Z-0.625000 I17.636213 J-10.868227
G02 X75.482035 Y114.980195 Z-0.625000 I-10.346435 J5.339032
G02 X74.516932 Y113.784475 Z-0.625000 I-9.217885 J6.452704
G03 X73.574208 Y112.606817 Z-0.625000 I7.652034 J-7.091669
G03 X73.465149 Y112.255933 Z-0.625000 I0.509935 J-0.350884
G02 X72.911984 Y110.190873 Z-0.625000 I-4.131194 J-0.000000
G02 X71.954040 Y109.637708 Z-0.625000 I-0.957944 J0.552877
G02 X71.480203 Y109.739137 Z-0.625000 I-0.000000 J1.157504
G02 X66.531516 Y112.070672 Z-0.625000 I60.388844 J134.593003
G03 X48.910761 Y118.630113 Z-0.625000 I-40.703310 J-82.394891
G03 X27.003859 Y122.327612 Z-0.625000 I-32.228050 J-124.198761
G03 X9.957190 Y121.923950 Z-0.625000 I-6.593398 J-81.703131
G03 X-6.988003 Y117.957028 Z-0.625000 I10.889164 J-84.689592
G03 X-16.969690 Y114.035548 Z-0.625000 I41.340634 J-119.892313
G03 X-20.874909 Y111.811445 Z-0.625000 I9.012737 J-20.365693
G01 X-22.186510 Y110.877503 Z-0.625000
G01 X-22.859538 Y112.488287 Z-0.625000
G02 X-23.387360 Y114.070420 Z-0.625000 I10.439178 J4.361772
G02 X-23.321337 Y114.310301 Z-0.625000 I0.244050 J0.061856
G03 X-23.259713 Y114.550336 Z-0.625000 I-0.172115 J0.172115
G03 X-23.956474 Y116.496024 Z-0.625000 I-16.255577 J-4.723606
G02 X-26.249329 Y123.644677 Z-0.625000 I36.530556 J15.658823
G02 X-28.036869 Y135.110800 Z-0.625000 I92.764270 J20.334114
G02 X-28.023320 Y137.661997 Z-0.625000 I12.872120 J1.207272
G02 X-27.754993 Y137.807767 Z-0.625000 I0.184218 J-0.019254
G01 X-27.711214 Y137.858270 Z-0.625000
G03 X-28.034035 Y138.203829 Z-0.625000 I-1.408907 J-0.992632
G02 X-28.530479 Y139.061334 Z-0.625000 I0.876416 J1.079850
G02 X-29.223943 Y145.550874 Z-0.625000 I59.562666 J9.646612
G02 X-29.353122 Y160.513956 Z-0.625000 I170.975497 J8.958160
G02 X-28.675867 Y161.167859 Z-0.625000 I0.677255 J-0.023768
G03 X-28.509035 Y161.302969 Z-0.625000 I-0.000000 J0.170555
G03 X-28.546367 Y161.777380 Z-0.625000 I-0.819757 J0.174167
G02 X-28.822631 Y164.436637 Z-0.625000 I4.802522 J1.842902
G02 X-26.327946 Y175.578833 Z-0.625000 I92.632082 J-14.889516
G02 X-20.579597 Y189.382254 Z-0.625000 I63.447330 J-18.323603
G02 X-12.932618 Y199.636361 Z-0.625000 I42.226350 J-23.511801
G02 X-7.345264 Y203.679184 Z-0.625000 I14.504113 J-14.162909
G02 X-1.599939 Y205.186854 Z-0.625000 I6.614390 J-13.504885
G02 X8.092563 Y202.428522 Z-0.625000 I0.885517 J-15.296784
G02 X11.444701 Y196.024325 Z-0.625000 I-4.531329 J-6.451226
G02 X11.248866 Y194.448332 Z-0.625000 I-6.143050 J-0.036821
G02 X9.297379 Y187.727097 Z-0.625000 I-115.529184 J29.899579
G03 X4.804446 Y169.847214 Z-0.625000 I133.591807 J-43.073957
G03 X4.141877 Y159.470608 Z-0.625000 I43.924021 J-8.014101
G03 X5.174943 Y154.513340 Z-0.625000 I16.641927 J0.881804
G03 X6.284118 Y153.744023 Z-0.625000 I1.109175 J0.414928
G01 X7.570945 Y153.744023 Z-0.625000
G01 X7.273799 Y158.439971 Z-0.625000
G02 X7.865954 Y168.998955 Z-0.625000 I44.371670 J2.807706
G02 X12.163917 Y186.059542 Z-0.625000 I121.164196 J-21.452439
G03 X13.867139 Y192.454100 Z-0.625000 I-54.184782 J17.856491
G03 X14.268600 Y196.321903 Z-0.625000 I-19.298069 J3.957793
G03 X13.958876 Y200.171127 Z-0.625000 I-22.780280 J0.104080
G03 X13.307119 Y202.090730 Z-0.625000 I-6.192630 J-1.032119
G02 X12.377739 Y203.941793 Z-0.625000 I37.822624 J20.148784
G02 X12.327684 Y204.165037 Z-0.625000 I0.472800 J0.223244
G02 X12.654702 Y204.490793 Z-0.625000 I0.325759 J0.000000
G02 X24.830398 Y204.116717 Z-0.625000 I-0.876802 J-226.877259
G01 X29.690929 Y203.836625 Z-0.625000
G01 X29.495285 Y200.297611 Z-0.625000
G03 X29.577121 Y196.791357 Z-0.625000 I22.310324 J-1.233361
G03 X30.147430 Y193.920072 Z-0.625000 I15.484308 J1.583291
G02 X36.638194 Y166.942857 Z-0.625000 I-245.725811 J-73.391505
G02 X36.834392 Y157.582922 Z-0.625000 I-28.712780 J-5.283885
G03 X36.915887 Y153.518745 Z-0.625000 I12.623018 J-1.779790
G03 X37.692717 Y152.870629 Z-0.625000 I0.776830 J0.141497
G03 X39.489016 Y154.341356 Z-0.625000 I-0.000000 J1.832335
G03 X40.087725 Y163.449351 Z-0.625000 I-33.735954 J6.791289
G03 X38.801567 Y173.296702 Z-0.625000 I-79.316529 J-5.351826
G03 X35.409120 Y186.714584 Z-0.625000 I-122.970219 J-23.952802
G02 X33.067282 Y197.766064 Z-0.625000 I57.383270 J17.933531
G02 X33.703539 Y201.516277 Z-0.625000 I6.771368 J0.780256
G02 X36.995661 Y204.586431 Z-0.625000 I5.610518 J-2.716005
G02 X44.861549 Y205.987064 Z-0.625000 I7.303250 J-18.227157
G02 X48.705658 Y205.528854 Z-0.625000 I-0.617231 J-21.532191
G02 X51.326494 Y204.618442 Z-0.625000 I-2.291418 J-10.823944
G01 X51.326494 Y204.618444 Z-0.625000
G00 Z100.000000

(End cutting path id: path1)


(Start cutting path id: path1)
(Change tool to Default tool)

G00 Z100.000000
G00 X99.885268 Y187.761702

G01 Z-0.625000 F100.0(Penetrate)
G02 X107.194469 Y184.947962 Z-0.625000 I-10.200847 J-37.398911 F400.000000
G02 X116.807240 Y179.194320 Z-0.625000 I-35.827187 J-70.764472
G02 X119.939438 Y176.442753 Z-0.625000 I-10.803161 J-15.456114
G02 X120.232530 Y175.437200 Z-0.625000 I-0.879535 J-0.801852
G03 X120.325933 Y175.307809 Z-0.625000 I0.109877 J-0.019091
G03 X120.651260 Y175.374660 Z-0.625000 I0.071357 J0.477763
G02 X121.621564 Y175.256203 Z-0.625000 I0.411164 J-0.665278
G02 X126.443420 Y169.841084 Z-0.625000 I-55.462191 J-54.240286
G02 X130.796510 Y163.947788 Z-0.625000 I-63.905091 J-51.757918
G02 X130.941020 Y162.669972 Z-0.625000 I-1.157904 J-0.778029
G03 X130.931780 Y162.254429 Z-0.625000 I0.575045 J-0.220661
G03 X131.112580 Y162.155668 Z-0.625000 I0.143523 J0.047870
G02 X132.795381 Y161.397963 Z-0.625000 I0.365213 J-1.436426
G02 X137.807610 Y149.158717 Z-0.625000 I-67.667751 J-34.857297
G02 X140.732218 Y138.628223 Z-0.625000 I-169.435410 J-52.728248
G02 X141.549570 Y133.874351 Z-0.625000 I-33.574170 J-8.219740
G02 X142.102572 Y123.003049 Z-0.625000 I-109.188745 J-11.003938
G02 X141.570170 Y116.843199 Z-0.625000 I-35.405585 J-0.042792
G03 X141.111846 Y114.222798 Z-0.625000 I2653.320571 J-465.432343
G03 X140.865700 Y112.803759 Z-0.625000 I779.461342 J-135.935896
G02 X140.517431 Y111.506882 Z-0.625000 I-7.240991 J1.249326
G02 X140.341090 Y111.383629 Z-0.625000 I-0.176926 J0.065357
G03 X140.176311 Y111.259907 Z-0.625000 I0.000535 J-0.172305
G03 X139.974730 Y110.137002 Z-0.625000 I5.067664 J-1.489278
G02 X139.224500 Y107.137686 Z-0.625000 I-8.822955 J0.613433
G02 X136.287910 Y101.898771 Z-0.625000 I-30.462177 J13.632596
G02 X127.777796 Y94.525703 Z-0.625000 I-18.347177 J12.578818
G02 X122.694460 Y95.196670 Z-0.625000 I-2.039853 J4.137303
G02 X120.252713 Y98.257426 Z-0.625000 I7.340296 J8.360132
G02 X118.200380 Y103.492216 Z-0.625000 I20.173237 J10.928757
G02 X117.255745 Y110.559775 Z-0.625000 I29.355512 J7.520503
G02 X117.896360 Y123.830338 Z-0.625000 I105.196794 J1.572541
G03 X117.271095 Y145.025188 Z-0.625000 I-75.020338 J8.393489
G03 X111.963950 Y158.306562 Z-0.625000 I-33.847675 J-5.824261
G03 X107.869140 Y163.685039 Z-0.625000 I-46.219103 J-30.940123
G03 X105.475130 Y165.832649 Z-0.625000 I-9.535136 J-8.220976
G02 X103.243276 Y167.477411 Z-0.625000 I24.593033 J35.708078
G02 X103.127110 Y167.681718 Z-0.625000 I0.192766 J0.244782
G03 X103.012281 Y168.255392 Z-0.625000 I-4.324399 J-0.567258
G03 X101.223390 Y174.705445 Z-0.625000 I-550.214105 J-149.126151
G02 X99.745250 Y180.174180 Z-0.625000 I219.160535 J62.170841
G02 X99.670913 Y180.746444 Z-0.625000 I2.289395 J0.588353
G03 X99.575364 Y181.310765 Z-0.625000 I-1.786738 J-0.012274
G03 X98.356861 Y184.600532 Z-0.625000 I-63.512836 J-21.654103
G02 X97.079557 Y187.878642 Z-0.625000 I175.242970 J70.170714
G02 X97.046772 Y188.057675 Z-0.625000 I0.472443 J0.179033
G02 X97.263137 Y188.252653 Z-0.625000 I0.196035 J0.000000
G02 X99.885298 Y187.761706 Z-0.625000 I-1.705565 J-16.357456
G01 X99.885268 Y187.761702 Z-0.625000
G00 Z100.000000

(End cutting path id: path1)


(Start cutting path id: path1)
(Change tool to Default tool)

G00 Z100.000000
G00 X31.168524 Y119.220370

G01 Z-0.625000 F100.0(Penetrate)
G02 X59.816798 Y111.446702 Z-0.625000 I-9.264882 J-90.819365 F400.000000
G02 X85.474294 Y94.427958 Z-0.625000 I-40.786961 J-89.340537
G02 X92.121257 Y86.366924 Z-0.625000 I-25.659799 J-27.929534
G02 X92.628122 Y82.795626 Z-0.625000 I-3.850651 J-2.368131
G02 X92.096428 Y81.347015 Z-0.625000 I-9.039283 J2.495874
G02 X91.666383 Y80.721319 Z-0.625000 I-2.059506 J0.954876
G03 X89.678708 Y77.950244 Z-0.625000 I8.303861 J-8.054719
G03 X89.308269 Y76.128162 Z-0.625000 I3.059410 J-1.570692
G03 X89.578367 Y75.085699 Z-0.625000 I2.993654 J0.219421
G03 X89.841255 Y74.977804 Z-0.625000 I0.189648 J0.087868
G02 X90.227500 Y74.910846 Z-0.625000 I0.135938 J-0.363344
G02 X93.538340 Y71.855504 Z-0.625000 I-33.061199 J-39.147414
G01 X96.798729 Y68.569826 Z-0.625000
G01 X95.959651 Y67.011752 Z-0.625000
G02 X95.014314 Y65.541606 Z-0.625000 I-9.943988 J5.355195
G02 X94.227699 Y64.728317 Z-0.625000 I-3.770887 J2.860161
G03 X93.434031 Y63.922343 Z-0.625000 I3.223976 J-3.968511
G03 X92.723138 Y62.816945 Z-0.625000 I5.423699 J-4.269329
G02 X92.051072 Y61.848657 Z-0.625000 I-4.022819 J2.074770
G02 X91.813355 Y61.815169 Z-0.625000 I-0.139001 J0.126237
G03 X91.633378 Y61.787544 Z-0.625000 I-0.073784 J-0.119387
G03 X91.515257 Y61.470185 Z-0.625000 I0.367270 J-0.317359
G02 X90.368796 Y57.799486 Z-0.625000 I-6.449588 J0.000000
G02 X88.738873 Y57.459089 Z-0.625000 I-0.994227 J0.688181
G03 X88.573493 Y57.413623 Z-0.625000 I-0.061558 J-0.099602
G03 X88.556043 Y57.108462 Z-0.625000 I0.329733 J-0.171934
G02 X88.558044 Y56.561179 Z-0.625000 I-0.719975 J-0.276278
G02 X88.119153 Y55.944559 Z-0.625000 I-1.380795 J0.518303
G03 X87.673707 Y55.351643 Z-0.625000 I1.022337 J-1.231847
G03 X87.700178 Y54.982073 Z-0.625000 I0.366389 J-0.159490
G02 X87.772545 Y54.587588 Z-0.625000 I-0.469138 J-0.289942
G02 X87.520040 Y54.048987 Z-0.625000 I-1.191230 J0.229978
G03 X87.130847 Y53.493176 Z-0.625000 I3.494136 J-2.860852
G03 X83.059996 Y46.535110 Z-0.625000 I548.193770 J-325.393319
G02 X75.284842 Y34.045867 Z-0.625000 I-188.571958 J108.730277
G02 X70.175061 Y27.317460 Z-0.625000 I-59.627463 J39.978651
G03 X67.203962 Y23.404924 Z-0.625000 I31.682381 J-27.143310
G03 X66.914706 Y22.453970 Z-0.625000 I1.418544 J-0.950954
G03 X68.187533 Y18.231456 Z-0.625000 I7.640362 J0.000000
G03 X76.883882 Y7.420480 Z-0.625000 I63.023005 J41.792547
G03 X80.387178 Y4.310994 Z-0.625000 I22.279008 J21.572364
G03 X81.436531 Y3.957230 Z-0.625000 I1.049353 J1.379440
G03 X81.976781 Y4.694148 Z-0.625000 I0.000000 J0.566493
G03 X80.398166 Y7.248860 Z-0.625000 I-5.835639 J-1.840888
G02 X78.301873 Y9.534604 Z-0.625000 I18.228745 J18.822029
G02 X75.792712 Y12.909500 Z-0.625000 I37.370564 J30.404386
G03 X73.410540 Y16.393130 Z-0.625000 I-422.970160 J-286.678699
G03 X71.891161 Y18.564770 Z-0.625000 I-165.897755 J-114.452339
G02 X70.696431 Y20.790110 Z-0.625000 I8.303994 J5.891588
G02 X70.633027 Y21.824410 Z-0.625000 I1.598829 J0.617105
G02 X71.080153 Y22.841221 Z-0.625000 I3.214400 J-0.806765
G02 X74.963986 Y28.396640 Z-0.625000 I103.052799 J-67.909640
G03 X82.415416 Y38.904604 Z-0.625000 I-249.186326 J184.599508
G03 X84.824372 Y42.932360 Z-0.625000 I-34.064914 J23.108110
G02 X85.981613 Y44.887548 Z-0.625000 I19.198413 J-10.043126
G02 X86.203895 Y45.006670 Z-0.625000 I0.222282 J-0.147829
G02 X86.631615 Y44.683527 Z-0.625000 I0.000000 J-0.444642
G02 X88.126659 Y38.237880 Z-0.625000 I-65.165388 J-18.511077
G02 X89.314375 Y26.536276 Z-0.625000 I-74.355067 J-13.458138
G02 X88.782299 Y10.040890 Z-0.625000 I-148.739656 J-3.458520
G02 X86.436572 Y-6.167962 Z-0.625000 I-145.786230 J12.823861
G02 X84.935440 Y-8.965080 Z-0.625000 I-5.388980 J1.090743
G02 X83.428130 Y-9.525988 Z-0.625000 I-1.366543 J1.366538
G02 X77.745480 Y-8.439970 Z-0.625000 I1.821585 J24.941944
G02 X66.535019 Y-3.370806 Z-0.625000 I15.431709 J49.057791
G02 X54.581833 Y5.589330 Z-0.625000 I39.278055 J64.851611
G03 X52.014083 Y7.731846 Z-0.625000 I-24.275861 J-26.484041
G03 X51.551247 Y7.887490 Z-0.625000 I-0.462836 J-0.610343
G03 X50.237595 Y7.762429 Z-0.625000 I-0.000000 J-6.961874
G03 X40.494587 Y5.763020 Z-0.625000 I74.628305 J-388.397875
G02 X35.212461 Y5.006536 Z-0.625000 I-7.832385 J35.869994
G02 X24.118481 Y4.622770 Z-0.625000 I-11.036831 J158.509495
G02 X12.702754 Y5.287038 Z-0.625000 I0.033996 J99.008363
G02 X4.271763 Y6.933200 Z-0.625000 I6.463591 J55.517153
G01 X1.237848 Y7.772050 Z-0.625000
G01 X-2.715376 Y3.959880 Z-0.625000
G02 X-12.871635 Y-5.054197 Z-0.625000 I-114.021806 J118.240990
G02 X-20.586420 Y-10.626460 Z-0.625000 I-51.012617 J62.500167
G02 X-27.469494 Y-14.556583 Z-0.625000 I-44.607929 J70.132253
G02 X-32.738747 Y-16.816440 Z-0.625000 I-19.739481 J38.753041
G02 X-34.481776 Y-17.078987 Z-0.625000 I-1.555260 J4.408054
G02 X-35.156553 Y-16.719240 Z-0.625000 I0.035338 J0.878994
G02 X-35.571436 Y-15.918573 Z-0.625000 I2.383537 J1.742905
G02 X-35.713622 Y-15.064770 Z-0.625000 I2.578235 J0.868101
G03 X-35.808923 Y-14.179345 Z-0.625000 I-4.374493 J-0.023000
G03 X-36.337816 Y-12.124460 Z-0.625000 I-24.293691 J-5.157280
G02 X-38.715974 Y3.874567 Z-0.625000 I52.805512 J16.025481
G02 X-36.358586 Y31.204490 Z-0.625000 I158.718664 J0.076088
G02 X-35.631230 Y34.586133 Z-0.625000 I43.370091 J-7.559406
G02 X-35.376201 Y35.033330 Z-0.625000 I0.944565 J-0.242352
G02 X-35.026320 Y35.041025 Z-0.625000 I0.178961 J-0.178959
G02 X-33.519119 Y33.332790 Z-0.625000 I-7.242518 J-7.909210
G03 X-29.070207 Y28.037321 Z-0.625000 I34.365814 J24.355360
G03 X-22.280486 Y21.993310 Z-0.625000 I51.678568 J51.218952
G02 X-18.797275 Y19.110919 Z-0.625000 I-52.746591 J-67.287176
G02 X-18.677743 Y18.847880 Z-0.625000 I-0.229651 J-0.263039
G02 X-18.754034 Y18.546491 Z-0.625000 I-0.633468 J0.000000
G02 X-24.525531 Y8.037100 Z-0.625000 I-828.713201 J448.269276
G03 X-31.248828 Y-5.004712 Z-0.625000 I196.670720 J-109.641316
G03 X-31.107706 Y-5.821930 Z-0.625000 I0.649751 J-0.308591
G03 X-30.394420 Y-6.256633 Z-0.625000 I1.252322 J1.252332
G03 X-29.800328 Y-6.239650 Z-0.625000 I0.272876 J0.854027
G03 X-28.712029 Y-5.349090 Z-0.625000 I-0.802218 J2.090594
G03 X-19.640110 Y9.766620 Z-0.625000 I-297.114886 J188.598117
G02 X-16.918862 Y14.393988 Z-0.625000 I144.919170 J-82.109780
G02 X-16.087536 Y15.590760 Z-0.625000 I10.477997 J-6.391314
G03 X-15.415061 Y16.819126 Z-0.625000 I-3.337977 J2.625648
G03 X-15.184173 Y18.183580 Z-0.625000 I-3.916230 J1.364454
G03 X-15.585719 Y19.439158 Z-0.625000 I-2.163782 J-0.000000
G03 X-17.695176 Y21.707840 Z-0.625000 I-9.732191 J-6.934104
G02 X-28.185782 Y32.302484 Z-0.625000 I48.323573 J58.340159
G02 X-35.368443 Y43.478230 Z-0.625000 I46.693852 J37.906200
G02 X-36.818752 Y46.720364 Z-0.625000 I39.858073 J19.775231
G02 X-41.311011 Y58.325904 Z-0.625000 I507.119378 J202.967368
G03 X-43.202413 Y62.526930 Z-0.625000 I-33.159239 J-12.402792
G03 X-45.628745 Y66.456939 Z-0.625000 I-31.424095 J-16.686793
G02 X-46.918103 Y68.520484 Z-0.625000 I16.651671 J11.838990
G02 X-47.062994 Y69.089238 Z-0.625000 I1.043843 J0.568754
G02 X-46.670833 Y69.983318 Z-0.625000 I1.215278 J0.000000
G02 X-43.681317 Y72.202508 Z-0.625000 I11.970625 J-13.002658
G03 X-42.366185 Y73.232139 Z-0.625000 I-3.244149 J5.498418
G03 X-41.790430 Y74.131686 Z-0.625000 I-1.864233 J1.827231
G03 X-41.851687 Y76.452214 Z-0.625000 I-2.855583 J1.085691
G03 X-43.956713 Y79.033793 Z-0.625000 I-5.753804 J-2.542656
G02 X-45.079272 Y80.123993 Z-0.625000 I2.997248 J4.209252
G02 X-45.316209 Y80.829484 Z-0.625000 I0.931850 J0.705491
G02 X-45.105322 Y81.586780 Z-0.625000 I1.465170 J0.000000
G02 X-42.763449 Y85.057536 Z-0.625000 I35.581475 J-21.482938
G03 X-40.238314 Y88.477923 Z-0.625000 I-212.023729 J159.170929
G03 X-38.213655 Y91.324949 Z-0.625000 I-144.869856 J105.167458
G02 X-33.221570 Y97.639048 Z-0.625000 I54.539867 J-37.990106
G02 X-28.181678 Y102.544250 Z-0.625000 I37.826142 J-33.823051
G02 X-2.207857 Y116.338651 Z-0.625000 I44.678650 J-52.775967
G02 X31.168524 Y119.220370 Z-0.625000 I24.270537 J-86.378686
G01 X31.168524 Y119.220370 Z-0.625000
G00 Z100.000000

(End cutting path id: path1)


(Start cutting path id: path1)
(Change tool to Default tool)

G00 Z100.000000
G00 X11.235944 Y94.706208

G01 Z-0.625000 F100.0(Penetrate)
G03 X9.992494 Y94.132089 Z-0.625000 I2.221607 J-6.445259 F400.000000
G03 X8.256379 Y92.947713 Z-0.625000 I8.158997 J-13.824482
G01 X6.586903 Y91.640791 Z-0.625000
G01 X5.490800 Y92.669544 Z-0.625000
G03 X4.263640 Y93.362038 Z-0.625000 I-2.028763 J-2.161581
G03 X1.919922 Y93.672471 Z-0.625000 I-2.256634 J-8.034654
G03 X-0.497860 Y93.421747 Z-0.625000 I0.136746 J-13.101621
G03 X-1.969831 Y92.899254 Z-0.625000 I1.054776 J-5.306190
G03 X-4.336893 Y90.740532 Z-0.625000 I2.983658 J-5.648727
G03 X-5.140163 Y88.038643 Z-0.625000 I4.142415 J-2.701889
G03 X-4.342259 Y87.386366 Z-0.625000 I0.665566 J0.000000
G03 X-1.829908 Y88.710247 Z-0.625000 I-1.004830 J4.952690
G02 X1.029999 Y90.465331 Z-0.625000 I5.366114 J-5.536424
G02 X3.552714 Y90.560341 Z-0.625000 I1.418584 J-4.127199
G02 X4.182419 Y90.143567 Z-0.625000 I-0.295747 J-1.130942
G02 X5.035538 Y88.638833 Z-0.625000 I-4.855938 J-3.747316
G03 X5.864408 Y87.160481 Z-0.625000 I5.787788 J2.273508
G03 X6.328796 Y86.929505 Z-0.625000 I0.464389 J0.351351
G03 X6.857648 Y87.129494 Z-0.625000 I-0.000000 J0.799243
G03 X8.759176 Y89.074355 Z-0.625000 I-12.239147 J13.868459
G02 X10.743123 Y90.972254 Z-0.625000 I9.825047 J-8.284600
G02 X12.505515 Y91.959249 Z-0.625000 I4.244225 J-5.511575
G02 X14.451554 Y92.324850 Z-0.625000 I1.982718 J-5.191680
G02 X16.590190 Y91.986209 Z-0.625000 I0.043862 J-6.645446
G02 X19.893774 Y90.050222 Z-0.625000 I-2.903166 J-8.740611
G02 X21.296150 Y87.693727 Z-0.625000 I-3.183325 J-3.489963
G03 X21.804647 Y86.763159 Z-0.625000 I2.019024 J0.499054
G03 X22.432743 Y86.492812 Z-0.625000 I0.628096 J0.594455
G03 X23.480372 Y87.892567 Z-0.625000 I0.000000 J1.091920
G03 X20.773322 Y92.140191 Z-0.625000 I-8.694865 J-2.554892
G03 X15.701331 Y94.860575 Z-0.625000 I-8.358829 J-9.496128
G03 X11.235944 Y94.706211 Z-0.625000 I-1.980850 J-7.362418
G01 X11.235944 Y94.706208 Z-0.625000
G00 Z100.000000

(End cutting path id: path1)


(Start cutting path id: path1)
(Change tool to Default tool)

G00 Z100.000000
G00 X4.681755 Y84.368290

G01 Z-0.625000 F100.0(Penetrate)
G03 X3.060783 Y83.398426 Z-0.625000 I3.471491 J-7.641569 F400.000000
G03 X1.491250 Y81.933001 Z-0.625000 I6.580610 J-8.621346
G03 X0.396749 Y78.975253 Z-0.625000 I3.310027 J-2.906242
G03 X1.552323 Y76.710321 Z-0.625000 I2.863049 J0.033480
G03 X2.902863 Y76.146703 Z-0.625000 I1.809238 J2.435399
G03 X7.544960 Y75.793752 Z-0.625000 I4.642097 J30.350550
G03 X12.147594 Y76.170848 Z-0.625000 I0.000000 J28.277216
G03 X13.243727 Y76.733862 Z-0.625000 I-0.327723 J1.986583
G03 X14.003256 Y78.691100 Z-0.625000 I-1.840663 J1.840282
G03 X13.019838 Y81.711403 Z-0.625000 I-5.951955 J-0.267719
G03 X9.156039 Y84.632451 Z-0.625000 I-6.075769 J-4.020755
G03 X4.681755 Y84.368290 Z-0.625000 I-1.894009 J-5.943951
G01 X4.681755 Y84.368290 Z-0.625000
G00 Z100.000000

(End cutting path id: path1)


(Start cutting path id: path1)
(Change tool to Default tool)

G00 Z100.000000
G00 X6.432286 Y78.632278

G01 Z-0.625000 F100.0(Penetrate)
G02 X6.353540 Y78.389960 Z-0.625000 I-0.142051 J-0.087792 F400.000000
G02 X5.366318 Y78.195581 Z-0.625000 I-0.987222 J2.409788
G02 X4.214021 Y78.379146 Z-0.625000 I-0.000000 J3.708449
G02 X4.030457 Y78.632278 Z-0.625000 I0.082750 J0.253132
G02 X4.205813 Y78.893618 Z-0.625000 I0.282420 J0.000000
G02 X5.096425 Y79.068974 Z-0.625000 I0.890611 J-2.173969
G02 X6.075439 Y78.913014 Z-0.625000 I-0.000000 J-3.150785
G02 X6.432286 Y78.632278 Z-0.625000 I-0.205359 J-0.628198
G01 X6.432286 Y78.632278 Z-0.625000
G00 Z100.000000

(End cutting path id: path1)


(Start cutting path id: path1)
(Change tool to Default tool)

G00 Z100.000000
G00 X-14.969831 Y67.719297

G01 Z-0.625000 F100.0(Penetrate)
G02 X-13.341604 Y62.414661 Z-0.625000 I-4.852833 J-4.391754 F400.000000
G02 X-16.127024 Y59.503730 Z-0.625000 I-3.416700 J0.481255
G02 X-18.393293 Y60.772046 Z-0.625000 I-0.371334 J1.995369
G02 X-18.650912 Y66.081789 Z-0.625000 I7.939746 J3.046342
G02 X-16.891356 Y68.125516 Z-0.625000 I3.042386 J-0.840044
G02 X-14.969831 Y67.719297 Z-0.625000 I0.680368 J-1.529450
G01 X-14.969831 Y67.719297 Z-0.625000
G00 Z100.000000

(End cutting path id: path1)


(Start cutting path id: path1)
(Change tool to Default tool)

G00 Z100.000000
G00 X-18.191929 Y75.846037

G01 Z-0.625000 F100.0(Penetrate)
G03 X-19.629446 Y73.154653 Z-0.625000 I4.267084 J-4.008720 F400.000000
G03 X-20.424529 Y66.177971 Z-0.625000 I30.211882 J-6.976682
G03 X-20.040605 Y61.840975 Z-0.625000 I24.688397 J-0.000000
G03 X-19.345950 Y60.133629 Z-0.625000 I4.355991 J0.777302
G02 X-18.625108 Y58.826740 Z-0.625000 I-6.708044 J-4.552204
G02 X-18.634095 Y58.597010 Z-0.625000 I-0.241698 J-0.105586
G02 X-18.784652 Y58.559400 Z-0.625000 I-0.092273 J0.049224
G02 X-19.743324 Y59.388737 Z-0.625000 I2.901500 J4.322746
G02 X-21.550874 Y63.460376 Z-0.625000 I5.285832 J4.783613
G02 X-21.069275 Y72.599155 Z-0.625000 I29.934549 J3.004577
G02 X-19.552307 Y76.117838 Z-0.625000 I9.362199 J-1.949876
G02 X-18.081461 Y76.885493 Z-0.625000 I1.470846 J-1.025261
G02 X-17.838883 Y76.615769 Z-0.625000 I0.000000 J-0.243944
G02 X-18.191929 Y75.846037 Z-0.625000 I-1.321935 J0.140489
G01 X-18.191929 Y75.846037 Z-0.625000
G00 Z100.000000

(End cutting path id: path1)


(Start cutting path id: path1)
(Change tool to Default tool)

G00 Z100.000000
G00 X-20.528214 Y79.283830

G01 Z-0.625000 F100.0(Penetrate)
G03 X-22.922981 Y76.317432 Z-0.625000 I2.533089 J-4.494801 F400.000000
G03 X-24.348340 Y66.967036 Z-0.625000 I30.331683 J-9.407551
G03 X-19.619084 Y56.787735 Z-0.625000 I13.268231 J-0.023887
G03 X-12.334732 Y56.865634 Z-0.625000 I3.596846 J4.277734
G03 X-9.014781 Y62.660442 Z-0.625000 I-6.799125 J7.743777
G03 X-9.432861 Y71.932194 Z-0.625000 I-19.543103 J3.764068
G03 X-11.305923 Y75.993766 Z-0.625000 I-14.220071 J-4.095140
G03 X-13.950730 Y78.770999 Z-0.625000 I-9.077860 J-5.997038
G03 X-17.273733 Y80.003712 Z-0.625000 I-3.825982 J-5.218395
G03 X-20.528214 Y79.283830 Z-0.625000 I-0.444838 J-5.705409
G01 X-20.528214 Y79.283830 Z-0.625000
G00 Z100.000000

(End cutting path id: path1)


(Start cutting path id: path1)
(Change tool to Default tool)

G00 Z100.000000
G00 X38.747803 Y81.070196

G01 Z-0.625000 F100.0(Penetrate)
G03 X35.300857 Y77.567669 Z-0.625000 I2.744249 J-6.148087 F400.000000
G03 X33.507449 Y68.806613 Z-0.625000 I20.502801 J-8.761056
G03 X33.921118 Y64.096008 Z-0.625000 I27.027568 J-0.000000
G03 X34.864617 Y61.138918 Z-0.625000 I11.466985 J2.029633
G03 X36.406400 Y58.401583 Z-0.625000 I20.171572 J9.558613
G03 X37.963048 Y56.444434 Z-0.625000 I11.803671 J7.790606
G03 X39.877485 Y55.017737 Z-0.625000 I5.114851 J4.865638
G03 X41.561888 Y54.613987 Z-0.625000 I1.684403 J3.311706
G03 X45.751034 Y56.465087 Z-0.625000 I0.000000 J5.665691
G03 X49.514904 Y63.347911 Z-0.625000 I-12.290518 J11.191613
G03 X50.057277 Y74.129649 Z-0.625000 I-24.781985 J6.651162
G03 X46.773217 Y80.157065 Z-0.625000 I-10.238132 J-1.669909
G03 X44.917689 Y81.269923 Z-0.625000 I-3.752789 J-4.153887
G03 X42.567636 Y81.672058 Z-0.625000 I-2.303758 J-6.395170
G03 X40.097909 Y81.470219 Z-0.625000 I0.112999 J-16.593557
G03 X38.747803 Y81.070196 Z-0.625000 I0.834014 J-5.293216
G01 X38.747803 Y81.070196 Z-0.625000
G00 Z100.000000

(End cutting path id: path1)


(Start cutting path id: path1)
(Change tool to Default tool)

G00 Z100.000000
G00 X46.042903 Y75.980206

G01 Z-0.625000 F100.0(Penetrate)
G02 X47.360020 Y72.567151 Z-0.625000 I-5.435700 J-4.058336 F400.000000
G02 X47.060150 Y65.334798 Z-0.625000 I-26.437032 J-2.526252
G02 X45.956826 Y61.236129 Z-0.625000 I-24.656929 J4.439581
G02 X45.016511 Y59.697219 Z-0.625000 I-4.252042 J1.541378
G01 X43.741030 Y58.325904 Z-0.625000
G01 X44.737986 Y60.291037 Z-0.625000
G03 X45.360941 Y62.345614 Z-0.625000 I-5.495486 J2.787980
G03 X45.734942 Y68.608183 Z-0.625000 I-52.245695 J6.262569
G03 X45.402945 Y74.861070 Z-0.625000 I-59.049955 J-0.000000
G03 X44.927335 Y76.192047 Z-0.625000 I-2.991706 J-0.318587
G02 X45.156108 Y76.534410 Z-0.625000 I0.187047 J0.122629
G02 X46.042903 Y75.980206 Z-0.625000 I-0.269124 J-1.417223
G01 X46.042903 Y75.980206 Z-0.625000
G00 Z100.000000

(End cutting path id: path1)


(Start cutting path id: path1)
(Change tool to Default tool)

G00 Z100.000000
G00 X41.846167 Y67.669025

G01 Z-0.625000 F100.0(Penetrate)
G02 X42.383061 Y66.636115 Z-0.625000 I-1.702984 J-1.541181 F400.000000
G02 X42.678068 Y64.002955 Z-0.625000 I-11.603967 J-2.633160
G02 X41.818656 Y60.277057 Z-0.625000 I-8.506340 J0.000000
G02 X40.443916 Y59.417645 Z-0.625000 I-1.374740 J0.669830
G02 X38.289553 Y60.947885 Z-0.625000 I0.000000 J2.281640
G02 X38.119591 Y66.081789 Z-0.625000 I8.140545 J2.839264
G02 X39.885230 Y68.099896 Z-0.625000 I2.975077 J-0.821459
G02 X41.846167 Y67.669025 Z-0.625000 I0.678024 J-1.591891
G01 X41.846167 Y67.669025 Z-0.625000
G00 Z100.000000

(End cutting path id: path1)


(Start cutting path id: path1)
(Change tool to Default tool)

G00 Z100.000000
G00 X87.794242 Y80.080749

G01 Z-0.625000 F100.0(Penetrate)
G03 X88.339519 Y79.987294 Z-0.625000 I0.490896 J1.226723 F400.000000
G03 X88.631243 Y80.115229 Z-0.625000 I-0.018029 J0.437679
G03 X88.603357 Y80.251135 Z-0.625000 I-0.058758 J0.058758
G03 X88.058079 Y80.344590 Z-0.625000 I-0.490899 J-1.226740
G03 X87.766356 Y80.216659 Z-0.625000 I0.018024 J-0.437676
G03 X87.794242 Y80.080753 Z-0.625000 I0.058758 J-0.058758
G01 X87.794242 Y80.080749 Z-0.625000
G00 Z100.000000

(End cutting path id: path1)


(Footer)
M5
G00 X0.0000 Y0.0000
M2
(Using default footer. To add your own footer create file "footer" in the output dir.)
(end)
%