%
(Header)
(Generated by gcodetools from Inkscape.)
(Using default header. To add your own header create file "header" in the output dir.)
M3
(Header end.)
G21 (All units in mm)

(Start cutting path id: text298)
(Change tool to Default tool)

G00 Z100.000000
G00 X-80.827170 Y95.362491

G01 Z-0.625000 F100.0(Penetrate)
G01 X-93.057540 Y95.362491 Z-0.625000 F400.000000
G01 X-93.057540 Y50.332504 Z-0.625000
G01 X-138.952300 Y50.332504 Z-0.625000
G01 X-138.952300 Y95.362491 Z-0.625000
G01 X-151.182670 Y95.362491 Z-0.625000
G01 X-151.182670 Y3.387661 Z-0.625000
G01 X-138.952300 Y3.387661 Z-0.625000
G01 X-138.952300 Y39.461066 Z-0.625000
G01 X-93.057540 Y39.461066 Z-0.625000
G01 X-93.057540 Y3.387661 Z-0.625000
G01 X-80.827170 Y3.387661 Z-0.625000
G01 X-80.827170 Y95.362491 Z-0.625000
G00 Z100.000000

(End cutting path id: text298)


(Start cutting path id: text298)
(Change tool to Default tool)

G00 Z100.000000
G00 X-10.595210 Y53.173902

G01 Z-0.625000 F100.0(Penetrate)
G02 X-12.000004 Y44.558344 Z-0.625000 I-28.294964 J0.191277 F400.000000
G02 X-15.227930 Y39.028680 Z-0.625000 I-14.467053 J4.738123
G02 X-20.409969 Y35.537548 Z-0.625000 I-9.589183 J8.642111
G02 X-29.002530 Y34.025348 Z-0.625000 I-8.592561 J23.656054
G02 X-37.691480 Y35.578477 Z-0.625000 I-0.000000 J25.081640
G02 X-43.888990 Y39.522836 Z-0.625000 I6.018702 J16.297837
G02 X-48.119283 Y45.613847 Z-0.625000 I14.778092 J14.778098
G02 X-50.127710 Y53.173902 Z-0.625000 I21.148691 J9.665235
G01 X-10.595210 Y53.173902 Z-0.625000
G00 Z100.000000

(End cutting path id: text298)


(Start cutting path id: text298)
(Change tool to Default tool)

G00 Z100.000000
G00 X0.708609 Y62.068715

G01 Z-0.625000 F100.0(Penetrate)
G01 X-50.127710 Y62.068715 Z-0.625000 F400.000000
G02 X-49.592714 Y68.327325 Z-0.625000 I36.875412 J0.000000
G02 X-48.212860 Y73.187230 Z-0.625000 I23.507069 J-4.048428
G02 X-45.859822 Y77.575072 Z-0.625000 I22.005932 J-8.976126
G02 X-42.962450 Y80.908421 Z-0.625000 I15.463884 J-10.515441
G02 X-39.508861 Y83.466397 Z-0.625000 I13.532608 J-14.660343
G02 X-35.364800 Y85.355827 Z-0.625000 I11.319168 J-19.336906
G02 X-30.853080 Y86.441997 Z-0.625000 I8.592095 J-25.776302
G02 X-25.605210 Y86.838296 Z-0.625000 I5.247870 J-34.548483
G02 X-18.690459 Y86.165334 Z-0.625000 I-0.000000 J-35.861354
G02 X-11.459990 Y84.058667 Z-0.625000 I-8.125463 J-41.349569
G02 X-4.543481 Y80.815695 Z-0.625000 I-23.130526 J-58.329196
G02 X-1.268020 Y78.499410 Z-0.625000 I-8.286725 J-15.192327
G01 X-0.650320 Y78.499410 Z-0.625000
G01 X-0.650320 Y91.162163 Z-0.625000
G03 X-6.587001 Y93.434300 Z-0.625000 I-37.389348 J-88.799772
G03 X-12.633610 Y95.300722 Z-0.625000 I-31.171062 J-90.256514
G03 X-18.806566 Y96.537069 Z-0.625000 I-12.085833 J-44.314697
G03 X-25.481670 Y96.968499 Z-0.625000 I-6.675104 J-51.423012
G03 X-41.565664 Y94.267397 Z-0.625000 I-0.000000 J-49.237466
G03 X-52.289650 Y87.703070 Z-0.625000 I9.559681 J-27.659350
G03 X-59.115000 Y77.184741 Z-0.625000 I19.451938 J-20.096026
G03 X-61.925690 Y61.265711 Z-0.625000 I43.675317 J-15.919030
G03 X-59.280011 Y45.377242 Z-0.625000 I49.031478 J-0.000000
G03 X-52.722030 Y34.395965 Z-0.625000 I29.249234 J10.018703
G03 X-42.269937 Y27.178538 Z-0.625000 I21.639884 J20.161384
G03 X-28.384840 Y24.451071 Z-0.625000 I13.885097 J33.979672
G03 X-15.461136 Y26.819780 Z-0.625000 I0.000000 J36.440296
G03 X-6.889040 Y32.604649 Z-0.625000 I-8.006195 J21.107244
G03 X-1.548170 Y41.646710 Z-0.625000 I-17.876027 J16.657200
G03 X0.708609 Y55.768222 Z-0.625000 I-43.053408 J14.121512
G01 X0.708609 Y62.068715 Z-0.625000
G00 Z100.000000

(End cutting path id: text298)


(Start cutting path id: text298)
(Change tool to Default tool)

G00 Z100.000000
G00 X30.049135 Y95.362491

G01 Z-0.625000 F100.0(Penetrate)
G01 X18.436463 Y95.362491 Z-0.625000 F400.000000
G01 X18.436463 Y-0.750894 Z-0.625000
G01 X30.049135 Y-0.750894 Z-0.625000
G01 X30.049135 Y95.362491 Z-0.625000
G00 Z100.000000

(End cutting path id: text298)


(Start cutting path id: text298)
(Change tool to Default tool)

G00 Z100.000000
G00 X64.763613 Y95.362491

G01 Z-0.625000 F100.0(Penetrate)
G01 X53.150941 Y95.362491 Z-0.625000 F400.000000
G01 X53.150941 Y-0.750894 Z-0.625000
G01 X64.763613 Y-0.750894 Z-0.625000
G01 X64.763613 Y95.362491 Z-0.625000
G00 Z100.000000

(End cutting path id: text298)


(Start cutting path id: text298)
(Change tool to Default tool)

G00 Z100.000000
G00 X134.563183 Y60.895093

G01 Z-0.625000 F100.0(Penetrate)
G02 X132.900212 Y48.079847 Z-0.625000 I-50.210138 J-0.000000 F400.000000
G02 X129.312773 Y41.005305 Z-0.625000 I-18.291051 J4.828383
G02 X123.192677 Y36.269892 Z-0.625000 I-12.889380 J10.335824
G02 X114.735164 Y34.457735 Z-0.625000 I-8.457513 J18.829935
G02 X106.159495 Y36.281109 Z-0.625000 I0.000000 J21.078178
G02 X100.034016 Y41.005305 Z-0.625000 I6.676017 J14.989547
G02 X96.490898 Y48.068323 Z-0.625000 I14.815169 J11.852137
G02 X94.845376 Y60.895093 Z-0.625000 I49.169283 J12.826770
G02 X96.470758 Y73.307861 Z-0.625000 I48.209772 J-0.000000
G02 X100.095786 Y80.599574 Z-0.625000 I19.710520 J-5.252019
G02 X106.241532 Y85.426645 Z-0.625000 I13.012273 J-10.241141
G02 X114.735164 Y87.270683 Z-0.625000 I8.493632 J-18.638805
G02 X123.122239 Y85.451151 Z-0.625000 I-0.000000 J-20.239743
G02 X129.251004 Y80.661343 Z-0.625000 I-6.889696 J-15.131576
G02 X132.910467 Y73.412591 Z-0.625000 I-15.604759 J-12.426011
G02 X134.563183 Y60.895093 Z-0.625000 I-46.576744 J-12.517498
G01 X134.563183 Y60.895093 Z-0.625000
G00 Z100.000000

(End cutting path id: text298)


(Start cutting path id: text298)
(Change tool to Default tool)

G00 Z100.000000
G00 X146.546472 Y60.895093

G01 Z-0.625000 F100.0(Penetrate)
G03 X144.027633 Y76.802782 Z-0.625000 I-51.491797 J-0.000000 F400.000000
G03 X137.898738 Y87.517761 Z-0.625000 I-28.767300 J-9.344366
G03 X128.041075 Y94.588687 Z-0.625000 I-20.484382 J-18.150718
G03 X114.735164 Y97.277347 Z-0.625000 I-13.305911 J-31.580486
G03 X101.310538 Y94.577968 Z-0.625000 I-0.000000 J-34.731556
G03 X91.448051 Y87.517761 Z-0.625000 I10.532746 J-25.131933
G03 X85.365525 Y76.813712 Z-0.625000 I22.729302 J-19.996030
G03 X82.862087 Y60.895093 Z-0.625000 I49.359175 J-15.918619
G03 X85.365525 Y44.976475 Z-0.625000 I51.862608 J-0.000000
G03 X91.448051 Y34.272426 Z-0.625000 I28.811829 J9.291982
G03 X101.321716 Y27.163934 Z-0.625000 I20.475197 J18.028476
G03 X114.735164 Y24.451071 Z-0.625000 I13.413448 J31.804214
G03 X128.029951 Y27.153140 Z-0.625000 I0.000000 J34.057701
G03 X137.898738 Y34.272426 Z-0.625000 I-10.696155 J25.226781
G03 X144.027633 Y44.987405 Z-0.625000 I-22.638406 J20.059346
G03 X146.546472 Y60.895093 Z-0.625000 I-48.972953 J15.907688
G01 X146.546472 Y60.895093 Z-0.625000
G00 Z100.000000

(End cutting path id: text298)


(Footer)
M5
G00 X0.0000 Y0.0000
M2
(Using default footer. To add your own footer create file "footer" in the output dir.)
(end)
%